source/img/vacancies/vacancies-pencil-icon.svg

<svg width="16" height="17" viewBox="0 0 16 17" fill="none" xmlns="http://www.w3.org/2000/svg">
<path fill-rule="evenodd" clip-rule="evenodd" d="M12.3191 6.00517L10.3776 4.06373L2.17137 12.27L1.29083 15.092L4.11281 14.2114L12.3191 6.00517ZM13.0262 5.29806L11.0848 3.35662L13.0375 1.40389L14.9789 3.34533L13.0262 5.29806ZM15.722 4.01646C16.0927 3.6458 16.0927 3.04485 15.722 2.6742L13.7086 0.660804C13.338 0.290149 12.737 0.290149 12.3664 0.660804L1.35662 11.6705C1.27812 11.749 1.22962 11.8526 1.21957 11.9631L0.0019973 15.8652C-0.0248342 16.1604 0.222428 16.4076 0.517574 16.3808L4.41967 15.1632C4.53023 15.1532 4.63377 15.1047 4.71227 15.0262L15.722 4.01646Z" fill="#E0E0E0"/>
</svg>

<svg width="16" height="17" fill="none" xmlns="http://www.w3.org/2000/svg"><path fill-rule="evenodd" clip-rule="evenodd" d="M12.32 6.005l-1.942-1.941L2.17 12.27l-.88 2.822 2.822-.88 8.206-8.207zm.706-.707l-1.941-1.941 1.952-1.953 1.942 1.941-1.953 1.953zm2.696-1.282a.949.949 0 000-1.342L13.709.661a.949.949 0 00-1.343 0L1.356 11.67a.475.475 0 00-.136.292L.002 15.865a.475.475 0 00.516.516l3.902-1.218a.474.474 0 00.292-.137l11.01-11.01z" fill="#E0E0E0"/></svg>
